X:1
T:Te  Deum  laudamus
T:Juzef Furmanik
T: Te  Deum  laudamus
T:Hymnus S.S. Ambrosii et Augustini
C:Juzef Furmanik
%%score { ( 1 3 ) | ( 2 4 ) }
L:1/8
M:4/4
K:C
V:1 treble nm="P1"
V:3 treble 
V:2 bass 
V:4 bass 
V:1
 E4 (G4"^Celebrans/Cantor" A8) A4 (A8 G4) (A4 B4"^-" c8) (B8 A4) !fermata!x4 || %1
w: 1. De- * um lau- * da- * * mus: *|
 A4 A8 A4"^Chorus I: Cantores (unisono)" G4 A4 B4 A8 G4 || %2
w: Te Do- mi- num con- fi- te- mur.|
[M:4/4]!f!"^S.A.""^T.B." e3"^Chorus II" e d2 c2 | f4 e2 ee | g2 e2 c2 e2 | d4 !fermata!d4 || %6
w: 2. ae- ter- num|Pa- trem om- nis|ter- ra ve- ne-|ra- tur.|
"^I" c8 c4 B8 A4 B8 B4 A4 A8 A4 A8 A4 A4 A4 A4 A8 G4 A4 B4 A8 G4 ||[M:4/4]!f!"^II" e2 e2 eedc | %8
w: 3. bi o- mnes an- ge- li, ti- bi coe- 1i, et u- ni- ver- sae po- te- sta- tes.|4. bi Che- ru- bim et|
 f2 f2 e2 ee | g2 ee c2 ee | d4 !fermata!d4 ||"^I" (G4"^-" A4"^-" B4 c8) (B8 A4) || %12
w: Se- ra- phim in- ces-|sa- bi- li vo- ce pro-|cla- mant:|5. * * * ctus, 6.|
 (G4"^-" A4 B4"^-" c8) (B8 A4) || [Ec]8 B4 A8 A4 B4 G8 c4 B8 A4 G4 ||[M:4/4]!f!"^II" G4 G2 G2 | %15
w: San- * * * ctus, 7.|San- ctus Do- mi- nus De- us Sa- ba- oth.|8. ni sunt|
 c4 c2 d2 | e4 d4 | c3 c d2 e2 | (c2"^-" f4) ed | (c4"^-""^-" B4) | !fermata![Ec]8 || %21
w: coe- li et|ter- ra|ma- je- sta- tis|glo- * ri- ae|tu- *|ae.|
"^I" c4 B4 A4 B8 A4 A4 A4 G4 A8 B4 A8 G4 ||[M:4/4]!f!"^II" e4 d2 c2 | f4 e2 e2 | (g2 e2) c2 e2 | %25
w: 9. glo- ri- o- sus A- po- sto- lo- rum cho- rus.|10. pro- phe-|ta- rum lau-|da- * bi- lis|
 d3 d !fermata!d4 ||"^I" c4 c8 c4 c4 B4 A4 B4 A4 A8 =G4 c4 B8 A4 G4 ||"^II" e2 e2 d2 dd | %28
w: nu- me- rus.|11. mar- ty- rum can- di- da- tus lau- dat ex- er- ci- tus.|12. per or- bem ter-|
 (d2 ^c2) c4 | d2 d2 d2 e2 | f4 e2 e2 | d4 d4 | !fermata!e8 || %33
w: ra- * rum|san- cta con- fi-|te- tur Ec-|cle- si-|a,|
"^I" c8 (B8 A4) A4 A8 G4 A4 B4 A8 G4 ||[M:4/4]!p!"^II" G2 G2 G2 G2 | A2 A2!<(! c4 | %36
w: 13. trem * im\- men- sae ma- je- sta- tis,|14. ne- ran- dum|tu- um ve-|
 B2 d2!<)! (f2 e2) |!>(! d2 c2 B2 B2!>)! | !fermata!c8 || %39
w: rum, et u- *|ni- cum Fi- li-|um,|
"^I" c8 (B8 A4) B8 A4 A4 G8 A4 B4 G8 G4 E4 ||[M:4/4]!f!"^II" c4 d4 | f4 e2!>(! d2 | %42
w: 15. ctum * quo- que Pa- ra- cli- tum Spi- ri- tum.|16. Rex|glo- ri- ae,|
 c4!>)! !fermata!B4 ||"^I" A4 A8 A4 A4 A4 G4 A4 B4 G8 G4 E4 ||[M:4/4]!p!"^II"!<(! E2 E2 G2 G2 | %45
w: Chri- ste.|17. Pa- tris sem- pi- ter- nus es Fi- li- us.|18. ad li- be-|
 A4!<)! A4 |!mf!!<(! c2 c2 d2 d2 | e3 e!<)! e4 |!f! f4 f2 f2 | e4 d4 | g2 ff e2 e2 | %51
w: ran- dum|sus- cep- tu- rus|ho- mi- nem|non ho- ru-|i- sti,|non ho- ru- i- sti|
!>(! (e2 d2) c2 d2 | B3 B!>)! B4 || %53
w: Vir- * gi- nis|u- te- rum.|
"^I" A4 A4 A8 A4 A8 G4 A4 B8 B4 A4 A4 A4 A4 A8 A4 A4 A8 A4 A4 G8 A4 B4 G8 E4 || %54
w: 19. de- vic- to mor- tis a- cu- le- o, a- pe- ru- i- sti cre- den- ti- bus re- gna coe- lo- rum.|
[M:4/4]!mf!"^II" A2 A2 c2 cc | d2 e2 f4 |!f! e2 e2 g2 fe | d2 cd e4 | !fermata!e8 || %59
w: 20. ad dex- te- ram|De- i se-|des in glo- ri- a|glo- ri- a Pa-|tris.|
"^I" A8 A4 B8 B4 A4 G8 A4 B4 G8 E4 ||[M:4/4]!p!"^II" B4 B2 B2 | c3 c c4 |!<(! c2 c2 d2 cd | %63
w: 21. dex cre- de- ris es- se ven- tu- rus.|22. er- go|que- su- mus,|tu- is fa- mu- lis|
 e3 e!<)! e2 z2 | f2 ff e2 d2 | c3 c c2 z2 | d2 c2 B4 | !fermata!c8 || %68
w: sub- ve- ni,|quos pre- ti- o- so|san- gui- ne|re- de- mi-|sti.|
"^I" F4 F8 F4 F4 D4 E4 F4 G8 G4 G4 G8 G4 G4 A4 F4 (G8 F4"^-" E4) E4 || %69
w: 23. ter- na fac cum san- ctis tu- is in glo- ri- a nu- me- ra- * * ri.|
!p!"^II" C8 (D4 F4) F4 F8 F4 F4 F8 F4 D8 F4 (E8 D4 C4) G4 G8 G4 G4 G4 G4 G4 A8 F4 (G8"^-" F4 E4) E8 || %70
w: 24. vum * fac po- pu- lum tu- um Do- mi- ne, _ _ et be- ne- dic hae- re- di- ta- ti tu- * * ae.|
[M:4/4]!p!"^II" E4 G2 (AB) | c4 c2!mf! c!<(!c | d2 d2 e2!<)! e2 |!f! f2 f2 e2!>(! c2 | %74
w: 25. re- ge *|e- os et ex-|tol- le il- los|us- que in ae-|
 B4!>)! !fermata!c4 ||"^I" E4 (G4 A8) A4 G4 (A4 B8) A4 A4 G4 A8 B4 G4 E4 ||"^II" z2 c4 c2 | %77
w: ter- num.|26. sin- * gu- los di- * es be- ne- di- ci- mus te.|Et lau-|
 d2 d2 e2 e2 | e4 d2 c2 | f3 f e2 ef | (g2 e2) c2 f2 | d3 d !fermata!e4 || %82
w: da- mus no- men|tu- um in|sae- cu- 1um,- et in|sae- * cu- lum|sae- cu- li.|
"^I" A4 A8 A4 A8 A4 A4 G8 A4 B8 A4 A8 A4 A4 A8 A4 G4 A4 B4 G8 E4 ||[M:4/4]!p!"^II"!<(! c6!<)! c2 | %84
w: 28. gna- re Do- mi- ne di\- e i\- sto si- ne pec- ca- ta nos cus- to- di- re.|Mi- se-|
!>(! d4!>)! ^c4 |!<(! d2 e2 f2 f2!<)! | e2!>(! e2 d2 d2!>)! | ^c4 c2"^-" c2 | %88
w: re- re,|mi- se- re- re|no- stri, Do- mi-|ne, mi- se|
"^-"!>(! d4!>)! (A2 B2) |!pp! ((c4 B4)) | !fermata![Ac]8 || %91
w: re- re *|no- *|stri.|
"^I" A8 A4 A4 A4 A4 A8 A4 A4 A8 A4 A8 G4 A4 B8 A4 A4 A4 A8 A4 A4 A4 G8 A4 B4 G4 E8 || %92
w: Fi- at mi- se- ri- cor \-di- a tu- a, Do- mi- ne, su- per nos, quem ad mo dum spe- ra- vi- mus in te.|
[M:4/4]!p!"^II" E4 G4 | A3 A A2!<(! B2 | (c4 d4)!<)! | e4!f! e2 e2 | g2!>(! e2 d2 c2 | %97
w: 31. te,|Do- mi- ne, spe-|ra- *|vi, non con-|fun- dar in ae-|
 d4!>)! !fermata!B4 |] %98
w: ter- num.|
V:2
 z64 || C4 D12 B,4 C4 D4- D8 B,4 ||[M:4/4]!f! C3 C B,2 C2 | C2 B,2 C2 CC | D2 C2 C2 C2 | %5
 C2 A,2 B,4 || C12 D8 A,4 ^G,12 A,4 A,12- A,8 A,4 A,12 A,8 C4- C4 D4 D8 B,4 || %7
[M:4/4]!f! C2 C2 CCB,C | C2 B,2 C2 CC | D2 CC C2 CC | C2 A,2 B,4 || B,4 C4 D4 C4 A,4 ^G,8 A,4 || %12
 B,4 A,4 D4 G,4 A,4 ^G,8 A,4 || A,8 D4- D12- D4 C12 D12 B,4 ||[M:4/4]!f! G,4 G,2 G,2 | %15
 C4 C2"^Edited by Rev. Andris Solims" B,2 | C4 B,4 | C3 C B,2 C2 | C4 B,2 B,2 | C2 D2 E2 D2 | C8 || %21
 G,4 F,4 A,4- A,4 ^G,4 A,4 C4 A,4 B,4 C8 D12 B,4 ||[M:4/4]!f! C4 B,2 C2 | C2 B,2 C2 C2 | %24
 D2 C2 C2 C2 | C2 A,2 B,4 || E12- E8 D4 C4 E4 C4 C12- C4 D8- D4 B,4 || C2 C2 A,2 A,A, | A,4 A,4 | %29
 A,2 A,2 B,2 ^C2 | D4 =C2 C2 | C4 B,4 | C8 || E,8 G,8 A,4 A,12 B,4 C4 D12 B,4 || %34
[M:4/4]!p! G,2 G,2 G,2 G,2 | A,2 A,2 A,4 | G,2 A,2 D2 C2 | A,2 A,2 A,2 ^G,2 | A,8 || %39
 C8 G,8 A,4 ^G,8 A,4 A,4 E,12 G,4 B,12 A,4 ||[M:4/4]!f! A,4 B,4 | C4 C2 A,2 | A,4 ^G,4 || %43
 A,4 D8 C4 C16 D4 B,12 G,4 ||[M:4/4]!p! E,2 E,2 G,2 G,2 | A,4 A,4 | C2 C2 B,2 B,2 | C3 C C4 | %48
!f! C4 D2 D2 | ^C4 D4 | ^C2 DD B,2 B,2 | C2 F2 E2 F2 | E3 E E4 || %53
 C8- C12- C12 C4 D12 C4 C12- C16 D8 C8 B,8 A,4 G,4 B,8 A,4 ||[M:4/4]!mf! A,2 A,2 A,2 A,A, | %55
 B,2 B,2 C4 |!f! C2 C2 C2 B,C | A,2 A,A, B,4 | B,8 || A,12 ^G,12 A,4 =G,8 E,4 G,4- G,12 || %60
[M:4/4]!p! E4 E2 E2 | E3 E E4 | A,2 A,2 A,2 A,A, | B,3 B, B,2 z2 | D2 B,B, B,2 E2 | E3 E E2 z2 | %66
 F2 E2 ^D2 E2 | E8 || A,4 _B,12 A,4 A,4 G,4 A,4 C12 C4 =B,12 C12 B,8 A,8 ^G,4 || %69
!p! A,8 G,4 A,8- A,16 _B,8 A,4 G,8 A,4 A,16 D,12 E,8 G,12 E,8 A,4 D,8 G,8 G,8 || %70
[M:4/4]!p! E,4 B,2 D2 | C4 C2!mf! CC | C2 B,2 D2!f! ^C2 | D2 =C2 B,2 CD | E4 E4 || %75
 G,8 C12 B,4 A,4 G,8 E,4 E,4 G,4 ^F,8 G,8- G,4 || z2 A,4 A,2 | B,2 B,2 C2 C2 | C4 B,2 C2 | %79
 C2 B,2 C2 CC | C4 C2 C2 | C2 B,2 C4 || C12- C4 C16- C12 D12 D16 C12 C8 D4 B,8 G,4 || %83
[M:4/4]!p! E6 E2 | D4 E4 | D2 C2 =B,2 B,2 | B,2 C2 D2 D2 | E4 E2 E2 | D4 F4 |!pp! E8 | E8 || %91
 C16- C8 D16 D8 C4 C16 D12 C4 A,4 A,8 F,8 E,4 G,8 ^F,4 G,8- G,8 ||[M:4/4]!p! E,4 G,4 | %93
 A,3 A, A,2 ^G,2 | A,4 B,4 | C4!f! C2 C2 | D2 C2 A,2 A,2 | A,4 ^G,4 |] %98
V:3
 x64 || E4 ^F12 E4- E4 G4 F8 G4 ||[M:4/4] G3 G G2 G2 | (A2 G2) G2 GG | G2 G2 G2 G2 | G4 G4 || %6
 E12 F8 C4 E12 C4 F12 E8 F4 E12 C8 E4 ^F4 G4- G4 F4 G4 ||[M:4/4] G2 G2 GGGG | A2 G2 G2 GG | %9
 G2 GG G2 GG | G4 G4 || D4 F8 E8- E8 C4 || E4 C4 F4 E8- E8 C4 || x8 G4 ^F12 G4 E12 G8 F4 D4 || %14
[M:4/4] G4 G2 G2 | G4 G2 G2 | G4 G4 | E3 E G2 G2 | A6 GF | (E2 F2 G2 F2) | x8 || %21
 C4 F4 E4- E8 C4 (E12 E8) G4 ^F8 G4 ||[M:4/4] G4 G2 G2 | (A2 G2) G2 G2 | G4 G2 G2 | G3 G G4 || %26
 G12- G8 G4 E4 ^G4 E4 F8 E4 E4 =G8 ^F4 D4 || G2 G2 F2 FF | (F2 E2) E4 | F2 F2 G2 G2 | F4 A2 A2 | %31
 A4 G4 | G8 || C8 G8 F4 F4 E8 D4 ^F4 G4- G4 F4 D4 ||[M:4/4] G2 G2 G2 G2 | A2 A2 E4 | E2 F2 G4 | %37
 F2 E2 E2 E2 | E8 || E8- E8 C4 E8 C4 C4 E12 D4 E12 C4 ||[M:4/4] E4 G4 | A4 G2 F2 | E4 E4 || %43
 C4 F8 E4 F8 E8 G4 E12 B,4 ||[M:4/4] E2 E2 G2 G2 | A4 A4 | E2 E2 G2 G2 | G3 G G4 | A4 A2 A2 | %49
 A4 A4 | A2 AA ^G2 G2 | A4 A2 A2 | A2 ^F2 ^G4 || %53
 (F8 F12) F8 E4 ^F4 G12 E4 E12 =F8 F8 F8 (E8 E8) D8- E8 C4 ||[M:4/4] A2 A2 E2 EE | G2 G2 A4 | %56
 G2 G2 G2 GG | A2 AA (A2 ^F2) | ^G8 || C12 E12 C4 B,8 C4 D4 D8 C4 ||[M:4/4] ^G4 G2 G2 | A3 A A4 | %62
 A2 A2 A2 AA | A2 ^F2 ^G2 x2 | A2 AA ^G2 B2 | A3 A A2 x2 | A2 A2 (A2 ^G2) | A8 || %68
 D4 D12 C4 D4 C4 D4 E12 E4 D12 E4 F4- F4 D8- D4 C4 B,4 || %69
 C8 B,4 (C8 C16) D8 C4 B,8 D4 C8 B,4 A,4 B,12 C8 D12 C12 B,12 C4- C8 ||[M:4/4] E4 E2 F2 | %71
 E4 E2 AA | A2 B2 B2 A2 | A2 A2 ^G2 A2 | (A2 ^G2) A4 || C4 D4 E12- E4 D12 C4 E4 D12- D8 C4 || %76
 x2 E4 E2 | G2 G2 G2 G2 | G4 G2 G2 | G3 G G2 GG | G4 A2 A2 | A2 G2 G4 || %82
 E12- E4 F16 E12 G8 F4 F16 F12 E8 G4 D8 C4 ||[M:4/4] A6 A2 | G4 A4 | A2 A2 A2 A2 | ^G2 A2 F2 =G2 | %87
 A4 A2 A2 | A4 A4 | (A4 ^G4) | x8 || E16- E8 F16 E12 F8 E8 G8 E8 F4 E8 D8 E4 D16 D4 C8 || %92
[M:4/4] E4 G4 | A3 A A2 E2 | (E4 G4) | G4 G2 G2 | G2 G2 F2 E2 | F4 E4 |] %98
V:4
 x64 || A,,4 D,12 E,4 C,4 B,,4 D,8 G,4 ||[M:4/4] C,3 C, F,2 E,2 | D,4 C,2 C,C, | B,,2 C,2 E,2 C,2 | %5
w: |||||
w: |||||
 G,4 !fermata!G,,4 || A,,12 D,8 F,4 E,12 A,,4 D,12 ^C,8 D,4 =C,12 F,8 C,4 A,,4 G,,4 D,8 =G,4 || %7
w: ||
w: ||
[M:4/4] C,2 C,2 C,C,F,E, | D,2 D,2 C,2 C,C, | B,,2 C,C, E,2 C,C, | G,4 !fermata!G,,4 || %11
w: ||||
w: ||||
 G,4 F,4 D,4 A,,4 C,4 E,8 A,,4 || E,4 F,4 D,4 C,8 E,8 A,,4 || %13
w: ||
w: ||
 A,,8 B,,4 D,12 G,,4 C,8 A,,4 B,,8 D,4 G,4 ||[M:4/4] G,4 G,2 G,2 | E,4 E,2 D,2 | C,4 G,4 | %17
w: ||||
w: ||||
 A,3 A, G,2 C,2 | F,4 G,2 G,2 | A,4 G,4 | !fermata!C,8 || %21
w: ||||
w: |glo- ri- ae|||
 E,4 D,4 C,4 E,8 A,,4 A,,4 C,4 E,4 C,8 B,,4 D,8 G,,4 ||[M:4/4] C,4 F,2 E,2 | D,4 C,2 C,2 | %24
w: |||
w: |||
 B,,2 C,2 E,2 C,2 | G,3 G, !fermata![G,,G,]4 || %26
w: ||
w: ||
 C,12- C,8 G,,4 A,,4 E,,4 A,,4 F,,8 C,4 A,,4 B,,8 D,4 G,4 || C,2 C,2 D,2 D,D, | A,,4 A,,4 | %29
w: |||
w: |||
 D,2 D,2 G,2 E,2 | D,4 A,2 A,2 | F,4 G,4 | !fermata!C,8 || %33
w: ||||
w: ||||
 A,,8 E,8 F,4 D,4 C,8 B,,4 A,,4 G,,4 D,8 G,4 ||[M:4/4] G,2 G,2 G,2 G,2 | A,2 A,2 A,,4 | %36
w: |||
w: |||
 E,2 D,2 B,,2 C,2 | D,2 A,,2 E,2 E,2 | !fermata!A,,8 || %39
w: |||
w: |||
 A,,8 E,8 F,4 E,8 A,,4 A,,4 C,12 B,,4 E,,12 A,,4 ||[M:4/4] A,4 G,4 | F,4 C,2 D,2 | %42
w: |||
w: |||
 E,4 !fermata!E,4 || F,4 D,8 A,,4 F,,8 C,8 B,,4 E,12 E,4 ||[M:4/4] E,2 E,2 G,2 G,2 | A,4 A,4 | %46
w: ||||
w: ||||
 A,2 A,2 G,2 G,2 | C,3 C, C,4 | F,4 D,2 D,2 | G,4 F,4 | E,2 D,D, E,2 E,2 | A,4 A,2 D,2 | %52
w: ||||||
w: ||||||
 E,3 E, E,4 || F,,8- F,,12 A,,8 C,4 A,,4 G,,12 A,,4 A,12- F,16 D,8 A,8 E,8 ^F,4 G,4 E,8 A,4 || %54
w: ||
w: ||
[M:4/4] A,2 A,2 A,2 A,A, | G,2 G,2 F,4 | C,2 C,2 E,2 D,C, | F,2 F,F, E,4 | !fermata!E,8 || %59
w: |||||
w: |||||
 F,12 E,12 A,,4 E,8 A,,4 G,,4 B,,8 C,4 ||[M:4/4] E,4 E,2 E,2 | A,3 A, A,4 | F,2 F,2 F,2 F,F, | %63
w: ||||
w: ||||
 E,3 E, E,2 x2 | D,2 D,D, E,2 ^G,2 | A,3 A, A,2 x2 | D,2 E,2 F,2 E,2 | !fermata!A,,8 || %68
w: |||||
w: |||||
 D,4 _B,,12 F,,4 F,4 E,4 D,4 C,12 C,4 G,,12 C,4 F,,4 A,,4 G,,8 D,4 A,,4 E,4 || %69
w: |
w: |
 A,8 G,4 F,8- F,16 _B,,8 F,4 G,8 D,4 A,,16 G,,12 C,8 =B,,12 A,,12 G,,16 C,8 ||[M:4/4] E,4 E,2 D,2 | %71
w: ||
w: ||
 A,4 A,2 A,A, | ^F,2 G,2 ^G,2 A,2 | D,2 D,2 E,2 E,2 | E,4 !fermata!A,,4 || %75
w: ||||
w: ||||
 C,4 B,,4 A,,12 E,,4 ^F,,4 G,,8 A,,4 C,4 B,,4 D,8 G,,4 B,,4 C,4 || x2 A,,4 A,,2 | %77
w: ||
w: ||
 G,,2 G,,2 C,2 C,2 | C,4 F,2 E,2 | D,3 D, C,2 C,D, | E,2 C,2 F,2 D,2 | F,2 G,2 C,4 || %82
w: |||||
w: |||||
 A,,12- A,,4 F,,16 C,8 A,,4 G,,8 D,4 D,16 F,12 C,4 A,,4 G,,4 B,,8 C,4 ||[M:4/4] A,6 A,2 | %84
w: ||
w: ||
 _B,4 A,4 | F,2 E,2 D,2 D,2 | E,2 A,2 _B,2 B,2 | A,4 A,2 A,2 | F,4 D,4 | E,8 | A,,8 || %91
w: |||||||
w: |||||||
 A,,16- A,,8 D,16 A,,12 F,,8 C,4 A,,4 G,,8 A,,8 D,4 ^C,8 D,8 =C,4 B,,8 D,4 G,,4 B,,4 C,8 || %92
w: |
w: |
[M:4/4] E,4 G,4 | A,3 A, A,2 E,2 | A,4 =G,4 | C,4 C,2 C,2 | B,,2 C,2 D,2 A,,2 | D,4 !fermata!E,4 |] %98
w: ||||||
w: ||||||

